X: 35242
T: Roscommon, The
R: reel
M: 4/4
K: Edorian
EFGA BAGB|AF F2 dFAF|EFGA BAGB|AFdF FE E2|
EFGA BAGB|AF F2 dFAF|EFGA BAGB|AFdF FE E2||
eB B2 efge|fa a2 bfaf|eB B2 efge|fagf efgf|
eB B2 efge|fa a2 bgaf|g3e f3e|dBAF EFGA||
B3A B2 dB|AF F2 DF F2|EBBA B2 dB|AFDE FEED|
EBBA B2 dB|AF F2 DF F2|dBBA B2 dB|AFdF FE E2||

